X: 9354
T: Dancing Flame, The
R: jig
M: 6/8
K: Bminor
|:dBB BAB|def gec|dBB BAB|dBG ABc|
dBB BAB|GBd edc|fed ABc|dBB B3:|
|:eBB dBd|Adf gec|eBB dBd|edB cAF|
eBB dBG|FAc ABc|eE/E/E ABc|dBB B3:|
|:dBB BAB|cde gde|gfa a2b|gee ede|
fd/d/d dcd|BFA B2c|dBB BAB|def gec|
dBB BAB|GBd edc|fed ABc|dBB B3:|

